outputs/icons/social/person_round.svg

<svg xmlns="http://www.w3.org/2000/svg" width="1200" height="1200" fill="none"><g clip-path="url(#a)"><path fill="#000" d="M600 600c110.5 0 200-89.5 200-200s-89.5-200-200-200-200 89.5-200 200 89.5 200 200 200m0 100c-133.5 0-400 67-400 200v50c0 27.5 22.5 50 50 50h700c27.5 0 50-22.5 50-50v-50c0-133-266.5-200-400-200"/></g><defs><clipPath id="a"><path fill="#fff" d="M0 0h1200v1200H0z"/></clipPath></defs></svg>

<svg width="1200" height="1200" viewBox="0 0 1200 1200" fill="none" xmlns="http://www.w3.org/2000/svg"><g clip-path="url(#clip0_231_5357)"><path d="M600 600C710.5 600 800 510.5 800 400C800 289.5 710.5 200 600 200C489.5 200 400 289.5 400 400C400 510.5 489.5 600 600 600ZM600 700C466.5 700 200 767 200 900V950C200 977.5 222.5 1000 250 1000H950C977.5 1000 1000 977.5 1000 950V900C1000 767 733.5 700 600 700Z" fill="black"/></g><defs><clipPath id="clip0_231_5357"><path width="24" fill="white" d="M0 0H1200V1200H0V0z"/></clipPath></defs></svg>
